storage/app/icons/phosphoricons/light/square-half-light.svg

<svg xmlns="http://www.w3.org/2000/svg" fill="currentColor" viewBox="0 0 256 256"><path d="M200 42H56a14 14 0 0 0-14 14v144a14 14 0 0 0 14 14h144a14 14 0 0 0 14-14V56a14 14 0 0 0-14-14m-66 76h68v20h-68Zm0-12V86h68v20Zm0 44h68v20h-68Zm68-94v18h-68V54h66a2 2 0 0 1 2 2M54 200V56a2 2 0 0 1 2-2h66v148H56a2 2 0 0 1-2-2m146 2h-66v-20h68v18a2 2 0 0 1-2 2"/></svg>

<svg xmlns="http://www.w3.org/2000/svg" viewBox="0 0 256 256" fill="currentColor"><path d="M200,42H56A14,14,0,0,0,42,56V200a14,14,0,0,0,14,14H200a14,14,0,0,0,14-14V56A14,14,0,0,0,200,42Zm-66,76h68v20H134Zm0-12V86h68v20Zm0,44h68v20H134Zm68-94V74H134V54h66A2,2,0,0,1,202,56ZM54,200V56a2,2,0,0,1,2-2h66V202H56A2,2,0,0,1,54,200Zm146,2H134V182h68v18A2,2,0,0,1,200,202Z"/></svg>
